!!!OTL: 93h. Dir sterbende Geliebte.
!!!ARE: Europa, Mitteleuropa, Deutschland, Kreis Wetzlar; Dillkreis
!!!SCT: E0093F
!!!TXL: @@DE
!!!YEM: Copyright 1995, estate of Helmut Schaffrath.
**kern	**text
*ICvox	*
*M3/4	*
*k[f#]	*
*G:	*
!LO:TX:a:t=Sehr ruhig.	!
!LO:TX:a:t=Aus dem Kreis Wetʒlar, dem Dillkreis, vielfach. 1880-90.	!
{8d	Ʒwei
8g	lieb-
8a	-ten
=1	=1
4.b	ſich
8b/	aus
8a	rei-
8g	-nem
=2	=2
4.dd}	Sinn,
{8d	das
8d	führ-
8f#	-te
=3	=3
4a	ſie
4ee	ʒur
8dd	Weh-
8cc	-muth
=4	=4
4b	hin;
8r}	.
{8dd	ſie
8dd	liebten
8dd	.
=5	=5
8.ccL	ſich
16b	.
8aJ	.
8dd	ganʒ
8dd	in-
8dd	-nig-
=6	=6
8.bL	-lich,
16a	.
8gJ}	.
{8b	das
8b	Schickſal
8b	.
=7	=7
4a	führt
4ee	ſie
8dd	wunder-
8cc	.
=8	=8
4b	-lich.
8r}	.
==	==
!!!AGN: erzaehlendes Volks - Lied, Sage, Liebe, Leid, Tod, Ballade ?
!!!ONB: ESAC (Essen Associative Code) Database: ERK1
!!!AMT: simple triple
!!!AIN: vox
!!!EED: Helmut Schaffrath
!!!EEV: 1.0
!!!GTL: Liebesgeschichten mit tragischem Schluss
!!!URL-scan: https://rosdok.uni-rostock.de/mcrviewer/recordIdentifier/rosdok_ppn745146120/iview2/phys_0398.iview2?x=-422.27491384562836&y=2242.3362881471403&scale=0.554360769283424&rotation=0&layout=singlePageLayout
!!!ENC: Anna Maria Matuszewska
!!!EEV: 2024/11/28
*-	*-
